X:1
T:The Irishman's Love -- Reel
R:reel
B:Ryan's Mammoth Collection
N: 181
Z: Contributed by Ray Davies,  ray:davies99.freeserve.co.uk
M:2/4
L:1/16
K:G
v.G2(BG) Bdde | (fd).g.d (fd).c.A | .G2(BG) (Bd).d.e | (fd).c.A (AG).G2 |
 .G2(BG) Bdde | (fd).g.d (fd).c.A | .G2(BG) (Bd).d.e | (fd).c.A (AG).G2 H::
 .g2(dg) .g2(de) | (fgag f).d.e.f | .g2(dg) .g2(de)  | (fdc).A (AG).G2 |
 .g2(dg) .g2(de) | (fgag f).d.e.f | (dfg).a .b2(ag)  | (fdc).A (AG).G2 :|
